X:4448
L:1/8
M:3/4
K:Gmin
 |: d>g ^f>g d>=f | =e>(^c d2) (B2 | d)(d/_e/) c(c/d/) B(B/c/) | A(A/B/) GA Bc | d>g ^f>g d>=f | 
 =e>(^c d2) (B2 | d)(d/b/) a(a/b/) g(g/a/) | ^f(f/a/) g2 z2 :: G>A B>c A>B | G>A B>c d>B | 
 G(G/A/) B(B/c/) A(A/B/) | (G/^F/G/A/)({c} B/A/)B/c/ d2 | d>g ^f>g d>=f | =e>(^c d2) B2 | 
 (3(d_ed) (3(cdc) (3(BcB) | (A/B/)A/^F/ G2 z2 :|

